X:52
T:week 5 homework - sentence
M:4/4
L:1/4
K:Dm
f2 e d|e ^c A2|B2 A G| A ^F D2|
f g/f/ e d/^c/|B c/B/ A G/^F/|D E/F/ G A/B/ | A4 ||

